packages/ffe-icons/icons/filled/lg/block.svg

<svg xmlns="http://www.w3.org/2000/svg" height="40" viewBox="0 -960 960 960" width="40"><path d="M480.067-100.001q-78.836 0-148.204-29.92-69.369-29.92-120.682-81.21-51.314-51.291-81.247-120.629-29.933-69.337-29.933-148.173t29.92-148.204q29.92-69.369 81.21-120.682 51.291-51.314 120.629-81.247 69.337-29.933 148.173-29.933t148.204 29.92q69.369 29.92 120.682 81.21 51.314 51.291 81.247 120.629 29.933 69.337 29.933 148.173t-29.92 148.204q-29.92 69.369-81.21 120.682-51.291 51.314-120.629 81.247-69.337 29.933-148.173 29.933ZM480-150.256q59.943 0 115.113-20.526t99.811-59.577L230.359-694.924q-38.256 45.308-59.179 100.262Q150.256-539.709 150.256-480q0 138.045 95.85 233.894 95.849 95.85 233.894 95.85Zm249.23-114.82q37.975-44.641 59.244-99.811 21.27-55.17 21.27-115.113 0-138.045-95.85-233.894-95.849-95.85-233.894-95.85-59.844 0-115.05 20.667-55.207 20.667-99.874 59.847L729.23-265.076Z"/></svg>

<svg xmlns="http://www.w3.org/2000/svg" viewBox="0 -960 960 960" width="32" height="32"><path d="M480.07-100q-78.84 0-148.21-29.92t-120.68-81.21q-51.31-51.29-81.25-120.63Q100-401.1 100-479.93q0-78.84 29.92-148.21t81.21-120.68q51.29-51.31 120.63-81.25Q401.1-860 479.93-860q78.84 0 148.21 29.92t120.68 81.21q51.31 51.29 81.25 120.63Q860-558.9 860-480.07q0 78.84-29.92 148.21t-81.21 120.68q-51.29 51.31-120.63 81.25Q558.9-100 480.07-100Zm-.07-50.26q59.94 0 115.11-20.52 55.17-20.53 99.81-59.58L230.36-694.92q-38.26 45.3-59.18 100.26-20.92 54.95-20.92 114.66 0 138.04 95.85 233.89T480-150.26Zm249.23-114.82q37.97-44.64 59.24-99.81 21.27-55.17 21.27-115.11 0-138.04-95.85-233.89T480-809.74q-59.84 0-115.05 20.66-55.21 20.67-99.87 59.85l464.15 464.15Z"/></svg>
